!!!OTL: Les Montagnards (2-33), S. 84ff
!!!id: K1107V
**kern
*clefG2
*k[b-e-]
*B-:
{8f
=1
4f
8g
4f
8d
=2
4f
8b-
4dd
8b-
=3
4cc
8cc-
4cc
16.dd
32cc
=4
4.b-
32r
32bbbb-
32bbbb-}
{8f
=5
4f
8g
4f
8d
=6
4f
8b-
4dd
8b-
=7
4cc
8cc-
4cc
16.dd
32cc
=8
4.b-
32r
32ccccc
32bbbb-}
{8dd
=9
4dd
8dd
8dd
8cc
8b-
=10
4a
8g
4f
8cc
=11
4.cc}
4r
=12
{8cc
=13
4cc
8dd
4ee-
8cc
=14
4a
8f
4f
8ff
=15
4.ff}
4r
=16
{8f
=17
4d
8f
4b-
8dd
=18
4dd
8dd
4dd}
=19
{8f
=20
4d
8f
4b-
8dd
=21
4dd
8dd
4dd}
=22
{8dd
=23
4ee-
8dd
4cc
8b-
=24
4a
8cc
4ff}
=25
{8a
=26
4cc
8cc
8b-
8a
8g
=27
4.f}
4.r
=28
*M4/4
{4ee-
8.ff
16ee-
8dd
8cc
4dd
=29
4ff
8ee-
8dd
4ee-
4ff
=30
*M6/8
2dd}
4r
=31
*M4/4
{8cc
8r
8.dd
16cc
8b-
8a
4b-
=32
4dd
8cc
8b-
4cc
4ff
=33
2.b-
4r
=34
4.r
=35
32bbbb-
32r
32bbbb-}
{16f
16f
=36
*M2/4
8b-
16b-
16b-
8dd
16dd
16dd
=37
4ff}
8r
=38
{8dd
=39
8ee-
8ee-
8cc
8ee-
=40
8dd
8cc
8b-}
=41
{16f
16f
=42
8b-
16b-
16b-
8dd
16dd
16dd
=43
4ff}
8r
=44
{8dd
=45
8ee-
8ee-
4cc
=46
4ff
4b-}
=47
4r
=48
{4ee-
=49
4dd
4cc
=50
4dd
4ee-
=51
4dd
4cc
=52
2ff
=53
2a
=54
2b-}
==
*-
!!!minrhy: 32
!!!meters: 6/8 4/4 2/4 ]  ZZ[15
!!!cut: Les Montagnards (2-33), S. 84ff
!!!reg: qqq
!!!trd: aaa
!!!rhy1: X__  X___X__X___X__  X___X__X___X__  X___X__X___X_.X  X___.0___
!!!rhy2: X__  X___X__X___X__  X___X__X___X__  X___X__X___X_.X  X___.0___
!!!key: K1107V 32 Bb 6/8 4/4 2/4 ]  ZZ[15
!!!mod: ACHTTONSKALA DUR ?]  AMBITUS[10b
!!!kad: 1125335-53151511
!!!akz1: -5-5-53221_-5-5-53221_33-7-52_24-7-55_-3133_-3133_42-75_21-5_435433_213211_
!!!akz2: 15_43_15_45_3335-711_
!! ____15_43_15_45_3335-711_]
!!!fot: 'a__a__b__c__d__d__e__f__g__fw_h__i__h__iw_j__
!!!for: 'a__a__b__aw_aw_aw_aw_bw_c__cv_d__e__d__f__g__
!!!fok: '^a_^a_Vd_~a_Va_Va_Va_^d_$d_$d_/__\__/__^d_\__
!! PHRAS[VORWIEGEND AUFTAKTIG]
!!!fkt: Heimatlied?
!!!bem: zzz
!! KINTZELE
!! PR[35] 2K[4] 2G[3] 3K[2] 3G[3] 4A[5] 4Ü[0] 5A[1] 6K[0] 6G[1]
!! 7K[0] 7G[0] 8A[2] MEHR[0] SI[23] ABS[91] SR[8] SP[15]
!! ST[16] 2k[11] 2g[21] 3k[2] 3g[4] 4d[2] 4ü[0] 5d[0] 6k[1] 6g[0]
!! 7k[0] 7g[0] 8d[0] mehr[0] si[42] dm[-19] sr[32] sp[10]
!! 1F[17] 2F[38] 3F[21] 4F[2] LF[0] 2P[17] 3P[4] 4P[0] TRI[0] DF[6] AB[94]
!! TF[0] U3K[0] U3[0] U4[0] U4Ü[0] U5[0] U6K[0] U6[0] U7K[0] U7[0]
!! N1[9] N2K[0] N2[2] N3K[0] N3[11] N4[15] N4Ü[1] N5[20] N6K[0] N6[9]
!!!n7k: 0] N7[12] O1[17] O2K[0] O2[4] O3K[0] O3[0] HÖ[0
